X: 24
T:Old Cuffe Street
M:4/4
L:1/8
F:http://blackrosetheband.googlepages.com/ABCTUNES.ABC May 2009
C:Traditional
S:Altan Track 1
K:G
|: G2 Bd gbag | {eg}e2 dB eBdB | G2 3)Bcd gbag | {eg}e2 dB cBAF |
 G2 3)Bcd gbag |edef gfga | 3)bag af gfed |1 egdB cBAF :|2 3)efg dB Agfg |
K:Am
|eA 3)AAA egfg | eA 3)AAA egfg eA | 3)AAA edef gedB Agfg |
 eA 3)ABA eAfA | eA 3)AAA edBA | 3)GBd gb afgd | 3)efg dB cBAF||

